X:157
T:That Men a godly Life Might Live
%%stretchlast false
M:4/4
L:1/4
K:Bb clef=C1
"^v"[F,C] "^iii"[D,A,DF] "^Imaj7"[B,,A,DF] [F,B,CF] | [B,,A,DF] "^V¹"[A,,B,CF]/ "^vi7"[G,,B,F]/ [F,,F,CF]/ [F,,F,CG]/ "^Imaj7"[B,,F,DA] | "^I"[B,,F,DB] [B,,F,DB] "^v"[F,C] "^ii"[C,F,EB] | "^vii"[G,A,Dc] "^ii"[D,G,Dc] "^ii7¹"[E,B,CB] "^V"[F,A,F] | "^vi7¹"[B,,G,FG] "^V"[B,,CFA] "^iv7"[E,DEB] [C,DEB] | "^ii"[C,E] "^vi"[G,DB] [D,G,Dc] "^ii7¹"[E,G,B,c]/ [E,A,B,c]/ | "^I"[B,,B,DB] "^V²"[C,A,CF] "^ii"[C,G,CG] "^i"[C,B,CF] | "^IV"[E,G,E] "^ii"[F,G,CE] "^I"[B,,D] "^IVmaj7²"[B,,G,DE] | "^v"[F,,CG] "^V"[F,,A,CA] [F,,F,FB]2 | "^♯vi"[F,_A,F_A] "^V"[F,A,F]/ "^V7²"[C,A,EF]/ "^iii7"[D,CDA]/ [E,CDA]/ "^V"[F,CA] | "^v"[F,,C_A]3/2 [F,,CG]/ [F,,CF]/ [F,,B,CF] "^V"[F,,A,CF]/4 [F,,G,CF]/4 | "^V¹"[A,F]4 |]
